X:1
T:Win Them One by One
T:Win Them One by One
T:Charles Hutchinson Gabriel
T:Lizzie Douglas Foulks DeArmond, 1912
T:Public Domain Courtesy of the Cyber Hymnal™
T:Public Domain Courtesy of the Cyber Hymnal™
C:Charles Hutchinson Gabriel
Z:Public Domain
Z:Courtesy of the Cyber Hymnal™
%%score ( 1 2 ) ( 3 4 )
L:1/8
Q:1/4=105
M:6/8
K:G
V:1 treble 
V:2 treble 
V:3 bass 
V:4 bass 
V:1
 [B,D]2 [B,E] [B,F]2 [B,G] | [DB]2 [^C^A] [DB]3 | [Dd]2 [DB] [DA]2 [DG] | [DF]2 [D^E] [DF]3 | %4
w: 1.~We must win them|one by one|As the Mas- ter|did of old,|
w: 2.~Is it no- thing|they are lost,|Souls that Je- sus|died to save?|
w: 3.~We must win them|one by one|By a lit- tle|kind- ness shown,|
 [CD]2 [CE] [CF]2 [DG] | [FA]2 [^E^G] [FA]2 [=GB] | [Fc]3 [Dd]3 | [DB]3- [DB]2 z | %8
w: When He said to|His dis- ci- ples,|“Fol- low|Me”; *|
w: Let us glad- ly|in the res- cue|lend a|hand; *|
w: Or a gen- tle|touch of hu- man|sym- pa-|thy; *|
 [B,D]2 [B,E] [B,F]2 [B,G] | [DB]2 [^C^A] [DB]3 | [DB]2 [DE] [DF]2 [D^G] | [EA]2 [EB] [Ec]3 | %12
w: From the high- ways|broad and wide,|To the by- ways|turn a- side,|
w: News of life and|love im- part|To some wea- ry,|sin- ful heart,|
w: Stoop- ing down from|heights of ease,|Seek- ing on- ly|God to please,|
 [E^c]2 [EB] [Ec]2 [EA] | [Dd]2 [G^c] [Fd]2 [EG] | [DF]3 [^CE]3 | D3- D2 z || %16
w: In the foot- steps|of the Man of|Gal- i-|lee. *|
w: Help some bro- ther|in the glo- ry|light to|stand. *|
w: Point- ing ev- er|to the Christ of|Cal- va-|ry. *|
"^Refrain"!>(! [Fd]3 [Ec]3 | [EB]2!>)! z [CA]3 |!>(! [B,G]3 (F2!>)! E) | [B,D]3- [B,D]2 z | %20
w: ||||
w: One by|one, yes,|one by *|one, *|
w: ||||
 [CE]2 [EG] [CE][CF][CG] | [B,D]3 [DB]3 | [DA]3 [^CA]3 | [DA]3- [DA]2 z | [Fd]2 [Fd] [Ec]2 [Ec] | %25
w: |||||
w: We must win them for|Je- sus|one by|one; *|In the nar- row|
w: |||||
 [DB]2 [DB] [CA]2 [CA] | [B,G]2 [B,G] [CF]2 [CE] | [B,D]2 [^A,^C] [B,D]3 | %28
w: |||
w: ways of life, A-|mid the tu- mult|and the strife,|
w: |||
 [CE]2 [EG] [CE][DF][EG] | [Dd]3 [Ec]2 z |!>(! [DB]2!>)! z [DA]3 |!>(! [DG]3-!>)! [DG]2 z |] %32
w: ||||
w: We must win them for|Je- sus|one by|one. *|
w: ||||
V:2
 x6 | x6 | x6 | x6 | x6 | x6 | x6 | x6 | x6 | x6 | x6 | x6 | x6 | x6 | x6 | D3- D2 x || x6 | x6 | %18
 x3 C3 | x6 | x6 | x6 | x6 | x6 | x6 | x6 | x6 | x6 | x6 | x6 | x6 | x6 |] %32
V:3
 [G,,G,]2 [G,,G,] [G,,G,]2 [G,,G,] | [G,,G,]2 [G,,G,] [G,,G,]3 | [G,B,]2 [G,D] [G,C]2 [G,B,] | %3
 [D,A,]2 [D,^G,] [D,A,]3 | [D,F,]2 [D,G,] [D,A,]2 [D,B,] | [D,C]2 [D,B,] [D,C]2 [D,B,] | %6
 [D,A,]3 [D,F,]3 | G,3- G,2 z | [G,,G,]2 [G,,G,] [G,,G,]2 [G,,G,] | [G,,G,]2 [G,,G,] [G,,G,]3 | %10
 [E,^G,]2 [E,G,] [E,A,]2 [E,A,] | [A,C]2 [^G,D] [A,C]3 | [G,A,]2 [G,A,] [G,A,]2 [G,A,] | %13
 [F,A,]2 [E,A,] [D,A,]2 [G,B,] | A,3 [A,,G,]3 | [D,F,]3- [D,F,]2 z ||!>(! [D,A,]3 [D,A,]3 | %17
 [D,F,]2!>)! z [D,F,]3 |!>(! G,2 D, (E,2 F,)!>)! | [G,,G,]3- [G,,G,]2 z | %20
 [C,G,]2 [C,G,] [C,G,][D,G,][E,G,] | G,3 G,3 | [F,A,]3 [E,G,]3 | [D,F,]3- [D,F,]2 z | %24
 [D,A,]2 [D,A,] [D,A,]2 [D,A,] | [D,F,]2 [D,F,] [D,F,]2 [D,F,] | %26
 [G,,G,]2 [G,,D,] [G,,E,]2 [G,,F,] | [G,,G,]2 [G,,G,] [G,,G,]3 | [C,G,]2 [C,C] [C,G,][C,G,][C,G,] | %29
 [B,,G,]3 [C,G,]2 z |!>(! [D,G,]2!>)! z [D,C]3 | !>![G,,B,]3- [G,,B,]2 z |] %32
V:4
 x6 | x6 | x6 | x6 | x6 | x6 | x6 | G,3- G,2 x | x6 | x6 | x6 | x6 | x6 | x6 | A,3 x3 | x6 || x6 | %17
 x6 | G,,3 G,,3 | x6 | x6 | G,3 G,3 | x6 | x6 | x6 | x6 | x6 | x6 | x6 | x6 | x6 | x6 |] %32

